assets/images/vk.svg

<!-- Generated by IcoMoon.io -->
<svg version="1.1" xmlns="http://www.w3.org/2000/svg" width="32" height="32" viewBox="0 0 32 32">
<title>vk</title>
<path d="M29 0h-26c-1.65 0-3 1.35-3 3v26c0 1.65 1.35 3 3 3h26c1.65 0 3-1.35 3-3v-26c0-1.65-1.35-3-3-3zM25.919 22.4l-2.925 0.044c0 0-0.631 0.125-1.456-0.444-1.094-0.75-2.125-2.706-2.931-2.45-0.813 0.256-0.788 2.012-0.788 2.012s0.006 0.375-0.181 0.575c-0.2 0.219-0.6 0.262-0.6 0.262h-1.306c0 0-2.888 0.175-5.431-2.475-2.775-2.887-5.225-8.619-5.225-8.619s-0.144-0.375 0.013-0.556c0.175-0.206 0.644-0.219 0.644-0.219l3.131-0.019c0 0 0.294 0.050 0.506 0.206 0.175 0.125 0.269 0.369 0.269 0.369s0.506 1.281 1.175 2.438c1.306 2.256 1.919 2.75 2.362 2.513 0.644-0.35 0.45-3.194 0.45-3.194s0.012-1.031-0.325-1.488c-0.262-0.356-0.756-0.463-0.969-0.488-0.175-0.025 0.113-0.431 0.488-0.619 0.563-0.275 1.556-0.294 2.731-0.281 0.913 0.006 1.181 0.069 1.538 0.15 1.081 0.262 0.712 1.269 0.712 3.681 0 0.775-0.137 1.863 0.419 2.219 0.238 0.156 0.825 0.025 2.294-2.469 0.694-1.181 1.219-2.569 1.219-2.569s0.113-0.25 0.288-0.356c0.181-0.106 0.425-0.075 0.425-0.075l3.294-0.019c0 0 0.988-0.119 1.15 0.331 0.169 0.469-0.369 1.563-1.712 3.356-2.206 2.944-2.456 2.669-0.619 4.369 1.75 1.625 2.113 2.419 2.175 2.519 0.712 1.2-0.813 1.294-0.813 1.294z"></path>
</svg>

<svg width="32" height="32" viewBox="0 0 32 32" fill="none" xmlns="http://www.w3.org/2000/svg">
<g clip-path="url(#clip0_57_6)">
<path d="M29 0H3C1.35 0 0 1.35 0 3V29C0 30.65 1.35 32 3 32H29C30.65 32 32 30.65 32 29V3C32 1.35 30.65 0 29 0ZM25.919 22.4L22.994 22.444C22.994 22.444 22.363 22.569 21.538 22C20.444 21.25 19.413 19.294 18.607 19.55C17.794 19.806 17.819 21.562 17.819 21.562C17.819 21.562 17.825 21.937 17.638 22.137C17.438 22.356 17.038 22.399 17.038 22.399H15.732C15.732 22.399 12.844 22.574 10.301 19.924C7.526 17.037 5.076 11.305 5.076 11.305C5.076 11.305 4.932 10.93 5.089 10.749C5.264 10.543 5.733 10.53 5.733 10.53L8.864 10.511C8.864 10.511 9.158 10.561 9.37 10.717C9.545 10.842 9.639 11.086 9.639 11.086C9.639 11.086 10.145 12.367 10.814 13.524C12.12 15.78 12.733 16.274 13.176 16.037C13.82 15.687 13.626 12.843 13.626 12.843C13.626 12.843 13.638 11.812 13.301 11.355C13.039 10.999 12.545 10.892 12.332 10.867C12.157 10.842 12.445 10.436 12.82 10.248C13.383 9.973 14.376 9.954 15.551 9.967C16.464 9.973 16.732 10.036 17.089 10.117C18.17 10.379 17.801 11.386 17.801 13.798C17.801 14.573 17.664 15.661 18.22 16.017C18.458 16.173 19.045 16.042 20.514 13.548C21.208 12.367 21.733 10.979 21.733 10.979C21.733 10.979 21.846 10.729 22.021 10.623C22.202 10.517 22.446 10.548 22.446 10.548L25.74 10.529C25.74 10.529 26.728 10.41 26.89 10.86C27.059 11.329 26.521 12.423 25.178 14.216C22.972 17.16 22.722 16.885 24.559 18.585C26.309 20.21 26.672 21.004 26.734 21.104C27.446 22.304 25.921 22.398 25.921 22.398L25.919 22.4Z" fill="white"/>
</g>
<defs>
<clipPath id="clip0_57_6">
<rect width="32" height="32" fill="white"/>
</clipPath>
</defs>
</svg>
